icons/number-16.svg

<svg width="16" height="16" viewBox="0 0 16 16" fill="none" xmlns="http://www.w3.org/2000/svg">
<path fill-rule="evenodd" clip-rule="evenodd" d="M1 5.5C1 5.30109 1.07902 5.11032 1.21967 4.96967C1.36032 4.82902 1.55109 4.75 1.75 4.75H14.25C14.4489 4.75 14.6397 4.82902 14.7803 4.96967C14.921 5.11032 15 5.30109 15 5.5C15 5.69891 14.921 5.88968 14.7803 6.03033C14.6397 6.17098 14.4489 6.25 14.25 6.25H1.75C1.55109 6.25 1.36032 6.17098 1.21967 6.03033C1.07902 5.88968 1 5.69891 1 5.5ZM1 10.5C1 10.3011 1.07902 10.1103 1.21967 9.96967C1.36032 9.82902 1.55109 9.75 1.75 9.75H14.25C14.4489 9.75 14.6397 9.82902 14.7803 9.96967C14.921 10.1103 15 10.3011 15 10.5C15 10.6989 14.921 10.8897 14.7803 11.0303C14.6397 11.171 14.4489 11.25 14.25 11.25H1.75C1.55109 11.25 1.36032 11.171 1.21967 11.0303C1.07902 10.8897 1 10.6989 1 10.5Z" fill="#6A737D"/>
<path fill-rule="evenodd" clip-rule="evenodd" d="M10.5 1C10.6989 1 10.8897 1.07902 11.0303 1.21967C11.171 1.36032 11.25 1.55109 11.25 1.75L11.25 14.25C11.25 14.4489 11.171 14.6397 11.0303 14.7803C10.8897 14.921 10.6989 15 10.5 15C10.3011 15 10.1103 14.921 9.96967 14.7803C9.82902 14.6397 9.75 14.4489 9.75 14.25L9.75 1.75C9.75 1.55109 9.82902 1.36032 9.96967 1.21967C10.1103 1.07902 10.3011 1 10.5 1ZM5.5 1C5.69891 1 5.88968 1.07902 6.03033 1.21967C6.17098 1.36032 6.25 1.55109 6.25 1.75L6.25 14.25C6.25 14.4489 6.17098 14.6397 6.03033 14.7803C5.88968 14.921 5.69891 15 5.5 15C5.30109 15 5.11032 14.921 4.96967 14.7803C4.82902 14.6397 4.75 14.4489 4.75 14.25L4.75 1.75C4.75 1.55109 4.82902 1.36032 4.96967 1.21967C5.11032 1.07902 5.30109 1 5.5 1Z" fill="#6A737D"/>
<rect width="16" height="16" fill="white"/>
<path fill-rule="evenodd" clip-rule="evenodd" d="M1 5.25011C1 4.8359 1.33579 4.50011 1.75 4.50011H14.25C14.6642 4.50011 15 4.8359 15 5.25011C15 5.66432 14.6642 6.00011 14.25 6.00011H1.75C1.33579 6.00011 1 5.66432 1 5.25011Z" fill="black"/>
<path fill-rule="evenodd" clip-rule="evenodd" d="M1 10.7501C1 10.3359 1.33579 10.0001 1.75 10.0001H14.25C14.6642 10.0001 15 10.3359 15 10.7501C15 11.1643 14.6642 11.5001 14.25 11.5001H1.75C1.33579 11.5001 1 11.1643 1 10.7501Z" fill="black"/>
<path fill-rule="evenodd" clip-rule="evenodd" d="M6.36849 1.00953C6.7775 1.07497 7.05602 1.45959 6.99058 1.8686L4.99058 14.3686C4.92514 14.7776 4.54052 15.0561 4.13151 14.9907C3.7225 14.9253 3.44398 14.5406 3.50942 14.1316L5.50942 1.63162C5.57486 1.22261 5.95948 0.944089 6.36849 1.00953Z" fill="black"/>
<path fill-rule="evenodd" clip-rule="evenodd" d="M11.8685 1.00953C12.2775 1.07497 12.556 1.45959 12.4906 1.8686L10.4906 14.3686C10.4251 14.7776 10.0405 15.0561 9.63151 14.9907C9.2225 14.9253 8.94398 14.5406 9.00942 14.1316L11.0094 1.63162C11.0749 1.22261 11.4595 0.944089 11.8685 1.00953Z" fill="black"/>
</svg>

<svg xmlns="http://www.w3.org/2000/svg" width="16" height="16" viewBox="0 0 16 16"><path fill-rule="evenodd" d="M1 5.5a.75.75 0 01.75-.75h12.5a.75.75 0 110 1.5H1.75A.75.75 0 011 5.5zm0 5a.75.75 0 01.75-.75h12.5a.75.75 0 110 1.5H1.75A.75.75 0 011 10.5z"/><path fill-rule="evenodd" d="M10.5 1a.75.75 0 01.75.75v12.5a.75.75 0 11-1.5 0V1.75A.75.75 0 0110.5 1zm-5 0a.75.75 0 01.75.75v12.5a.75.75 0 11-1.5 0V1.75A.75.75 0 015.5 1z"/><path d="M0 0h16v16H0z"/><path fill-rule="evenodd" d="M1 5.25a.75.75 0 01.75-.75h12.5a.75.75 0 010 1.5H1.75A.75.75 0 011 5.25zm0 5.5a.75.75 0 01.75-.75h12.5a.75.75 0 010 1.5H1.75a.75.75 0 01-.75-.75z"/><path fill-rule="evenodd" d="M6.368 1.01a.75.75 0 01.623.859l-2 12.5a.75.75 0 01-1.482-.237l2-12.5a.75.75 0 01.86-.622zm5.5 0a.75.75 0 01.623.859l-2 12.5a.75.75 0 01-1.482-.237l2-12.5a.75.75 0 01.86-.622z"/></svg>
